X: 157
T:The Okarina
M:7/8
L:1/8
F:http://blackrosetheband.googlepages.com/ABCTUNES.ABC May 2009
S:Kevin Burke Open House
K:Dm
T:A Part
def ef d2|cde A2 A2|GAB AB GA|FGE FGA^c|
def ef dA|cde A2 A2|GAB AB GA|FG_E D2 A,2:|
M:4/4
L:1/8
T:B Part
|:DFA G2 BAG|DFAF GE (3EEE|DFA G2 ABd|^cBAG FGE_E|
DFA G2 BAG|DFAF GE (3EEE|_EGB EGB AG|FG_E D2 A,2:|
T:Note: Last time, repeat B Part 4x

